X:30
T:He's a Pirate
C:F Paddy
Q:1/4=150
L:1/8
M:6/8
K:Cmaj
|:z3zEG|A2A2AB|c2c2cd|B2B2AG|GAz2
EG|A2A2AB|c2c2cd|B2B2AG|A2z2
EG|A2A2Ac|d2d2de|f2f2ed|eAz2
A,B,|C2C2D2|EA,z2A,C |1 B,2B,2CA,|B,2z2 |2 B,2B,2CG,|A,3z3 :|
|: e2e2e2|fezz3|d2d2d2dezz3|e2e2e2|fezz3|d2c2B2|A3z3 :|
[|zA,B,|C3DE2|D2C2B,2|C2D2E2|D4CD|E3DC2|B,2C2B,2|A,3B,G,2|
A,4AB|c3de2|d2c2B2|c2d2e2|d4AB|c2d2e2|f2A2d2|c3dB2|A6|]
[|f6|e2e2e2|edzz3|d6|c6|B2c2B2|A3ABc|
e3ABc|f3ABc|e2e2e2|edzz3|d6|c6|E^F^GA3|]



